!!!!SEGMENT: pl-wnifc--6802-n--005_worobecki-jozef--coda.krn
!!!cenid: 18xx:4053
!!!COM: Worobecki, Józef
!!!COM-rismID: pe50048108
!!!CDT:
!!!CNT:
!!!OTL: Coda
!!!PDT:
!!!AGN:
!!!SMS-siglum: PL-Wnifc
!!!SMS-shelfmark: 6802/n
!!!SMS-shelfwork: 005 W
!!!SMS-variant:
!!!SMS-altvar:
!!!NIFC-rismSourceID: 1001158026
!!!NIFC-rismChildID: 1001158026
!!!NIFC-islandoraID: nifc:213559
!!!URL-pdf-islandora: https://repozytorium.nifc.pl/islandora/object/nifc%3A213559/datastream/PDF/view
!!!URL-scan: https://polish.musicsources.pl/pl/lokalizacje/galeria/druki-muzyczne/16922-3-mazury/4 @EN{Scan on Polish Music Sources Website} @PL{Skany w portalu Dziedzictwo Muzyki Polskiej w otwartym dostępie}
!!!IIIF:
!!!ONB-nifc: UWAGA: w zbiorze: 1. Introdukcja, 2. Mazur No. 1, 3. Mazur No. 2, 4. Mazur No. 3, 5. Coda
!!!AIN: 2 piano
!!!key: G
**kern	**kern	**dynam
*part2	*part1	*part1
*staff2	*staff1	*
*I"Piano	*I"Piano	*
*I'pf	*I'pf	*
*ICklav	*ICklav	*
*Ipiano	*Ipiano	*
*clefF4	*clefG2	*
*k[f#]	*k[f#]	*
*G:	*G:	*
*M3/8	*M3/8	*
=1	=1	=1
!	!LO:TX:B:a:t=Coda.	!
8qC#X/	.	.
4.GG/ 4.D	4.r	.
=2	=2	=2
8qC#X/	.	.
4.GG/ 4.D	4.r	.
=3	=3	=3
8GG\L 8G	16.d/LL	mf
.	32d/JJk	.
8D\ 8G 8B	8g/L	.
8D\J 8G 8B	8a/J	.
=4	=4	=4
!	!LO:TUP:a:problem:klamra łukowa	!
8GG\L 8G	24b\LL	.
.	24cc\	.
.	24b\JJ	.
8D\ 8G 8B	8a\L	.
8D\J 8G 8B	8g\J	.
=5	=5	=5
8GG\L 8G	16g\LL 16gg	.
.	16f#\JJ 16ff#X	.
8G\ 8c 8e	8g\L 8gg	.
8G\J 8c 8e	8cc\J 8ee	.
=6	=6	=6
.	8qcc/ 8qee	.
8GG\L 8G	16.b/LL 16.dd	.
.	32a#X/JJk 32cc#X	.
8G\ 8B 8d	4b\ 4dd	.
8G\J 8B 8d	.	.
!!LO:LB:g=original	!	!
=7	=7	=7
.	(8qdd/	.
8DD\L 8D	8.ddd\L)	.
8D\ 8F# 8c	.	.
.	16ccc\L	.
8D\J 8F# 8c	16aa\	.
.	16ccc\JJ	.
=8	=8	=8
8GG\L 8G	16bb\LL	.
.	16ff#\	.
!	!LO:TUP:a:problem:klamra łukowa	!
8D\ 8G 8B	24gg\	.
.	24aa\	.
.	24gg\	.
8D\J 8G 8B	16.ff#\	.
.	32ee\JJk	.
=9	=9	=9
8DD\L 8D	(16.dd\LL	.
.	32ff#\JJk	.
8D\ 8F# 8c	8.aa\L	.
8D\J 8A 8c	.	.
.	16ff#\Jk)	.
=10	=10	=10
8GG\L 8G	(16.gg\LL	.
.	32bb\K	.
8D\ 8G 8B	16.ddd\	.
.	32ccc#X\K	.
8D\J 8G 8B	16.ddd\	.
.	32eee\JJk)	.
=11	=11	=11
8DD\L 8D	16.cccn\LL	.
.	32bb\JJk	.
8D\ 8F# 8c	8aa\L	.
8DD\J 8D	8dd\J 8ff# 8aa 8ddd	.
!!LO:LB:g=original	!	!
=12	=12	=12
8GG\L 8G	16bb\LL	.
.	16ff#\	.
!	!LO:TUP:a:problem:klamra łukowa	!
8D\ 8G 8B	24gg\	.
.	24aa\	.
.	24gg\	.
8D\J 8G 8B	16.ff#\	.
.	32ee\JJk	.
=13	=13	=13
8DD\L 8D	(16.dd\LL	.
.	32ff#\K	.
8D\ 8F# 8c	16.aa\	.
.	32ccc\K	.
8D\J 8F# 8c	16.bb\	.
.	32aa\JJk)	.
=14	=14	=14
*^	*	*
!	!	!LO:TX:b:t=cre-scen-do:dur=3e2q:ext=ut:problem:text with extention lines	!
8GG/L	4.GG\	8gg\	<
8BB/ 8D 8G	.	4dd\ 4ddd	.
8BB/J 8D 8G	.	.	.
=15	=15	=15	=15
8AA/L	4.AA\	8ff#\	.
8C/ 8D 8F#	.	4dd\ 4ddd	.
8C/J 8D 8F#	.	.	.
=16	=16	=16	=16
8BB/L	4.BB\	8gg\	[
8D/ 8G	.	[4gg\ [4ggg	.
8D/J 8G	.	.	.
!!LO:LB:g=original	!	!	!
=17	=17	=17	=17
!	!	!	!LO:DY:b:t=f.
8C\L	4.C/	16.gg\LL] 16.ggg]	f
.	.	(32ddd#X\K	.
8E\ 8A	.	16.eee\)	.
.	.	(32bb\K	.
8E\J 8A	.	16.ccc\)	.
.	.	(32aa\JJk	.
*v	*v	*	*
=18	=18	=18
16.D\LL	16.dddn\LL)	.
(32A#X\K	(32aa#X\K	.
16.B\)	16.bb\)	.
32F#\K	(32ff#\K	.
16.G\	16.gg\)	.
32E\JJk	32ee\JJk	.
=19	=19	=19
4D\	4dd\	.
8r	8r	.
=20	=20	=20
4DD^^/ 4D	4a^^\ 4cc 4dd 4ff#	.
8r	8r	.
=21	=21	=21
!LO:TX:a:t=P:problem:mixed beam	!	!
8GGG/L 8GG	[4.g\ [4.b [4.dd [4.gg	.
8D\ 8d	.	.
8BB\J 8B	.	.
=22	=22	=22
8GG/L 8G	4.g\_ 4.b_ 4.dd_ 4.gg_	.
8DD/ 8D	.	.
8BBB/J 8BB	.	.
=23	=23	=23
8GGG/ 8GG	8g\] 8b] 8dd] 8gg]	.
4r	8r	.
.	8r	.
==	==	==
*-	*-	*-
!!!system-decoration: {(s1,s2)}
!!!RDF**kern: > = above
!!!RDF**kern: < = below
!!!ENC: Berenika Jozajtis
!!!END: 2022-08-15
!!!ENC: Jan Barakat
!!!END: 2022-09-15
!!!YEC: Copyright 2022 Narodowy Instytut Fryderyka Chopina (https://polishscores.org)
!!!YEM: License CC-BY-4.0 (https://creativecommons.org/licenses/by/4.0)
